X:1
T:Magnificat Octavi Toni
T:Magnificat Octavi Toni
T:Cristóbal de Morales (1500-1553
T:Ediciones Gaudeamus
T:Ediciones Gaudeamus
T:Ediciones Gaudeamus
T:Ediciones Gaudeamus
T:Ediciones Gaudeamus
T:Ediciones Gaudeamus
T:Ediciones Gaudeamus
T:Ediciones Gaudeamus
T:Ediciones Gaudeamus
T:Ediciones Gaudeamus
T:Ediciones Gaudeamus
T:Ediciones Gaudeamus
T:Ediciones Gaudeamus
T:Ediciones Gaudeamus
T:Ediciones Gaudeamus
T:Ediciones Gaudeamus
C:Cristóbal de Morales (1500-1553
Z:Ediciones Gaudeamus
%%score [ 1 2 3 4 ]
L:1/8
Q:1/4=140
M:none
K:C
V:1 treble nm="Soprano" snm="S"
V:2 treble nm="Alto" snm="A"
V:3 treble-8 nm="Tenor" snm="T"
V:4 bass transpose=-12 nm="Bajo" snm="B"
V:1
 x8 | x8 ||[M:4/4] x8 | c6 c2 | c4 B2 c2 | A2 G2 A4 | G8- | G8 | z4 z2 G2 | d2 d2 e4 | d2 c4 B2 | %11
w: |||A- ni-|ma me- a|Do- * mi-|num,|_|A-|ni- ma me-|a Do- mi-|
 A2 c4 B2 | A2 G2- G^F F2 | G8 || x8 | x8 | x8 | x8 | x8 | x8 || G4 A4- | A4 G4- | G4 c4- | %23
w: num, Do- *|* * * * mi-|num,|||||||Qui- a|_ re-|* spe-|
 c2 BA B2 c2 | e2 d4 cB | c4 B2 d2 | d2 d2 e4- | e2 d2 c2 A2 | B4 z4 | z2 d2 d2 d2 | e6 dc | %31
w: ||* xit hu-|mi- li- ta-||tem|an- cil- lae|su- * *|
 d2 B2 c3 d | e2 d2- dc c2- | c2 B2 c4- | c4 z4 | z2 c2- cc c2 | A2 B2 c4- | c2 c2 B2 d2- | %38
w: ||* * ae,|_|ec- * ce e-|nim ex hoc|_ be- a- tam|
 dcAB cd e2- | e2 d2 e2 c2- | c2 B2 c4 | z2 c4 B2 | c2 A2 B4 | c2 d2 e2 g2- | gf e2 d2 c2- | %45
w: _ _ _ _ _ _ _|* me di- *|* * cent|o- mnes|ge- ne ra-|ti- * o- *|* * * * nes|
 c2 BA B4 | d3 d d2 d2 | B4 A2 B2- | BA G4 ^F2 | G8 || x8 | x8 | x8 | x8 | x8 | x8 || x8 | x8 | %58
w: _ _ _ _|o- mnes ge- ne|ra- ti- o-||nes|||||||||
 d6 d2 | d2 d2 e2 c2 | d3 B d2 c2- | c2 B2 c2 A2 | B3 c d2 e2- | e2 d2 c2 f2- | f2 ed e2 A2 | d8 | %66
w: Et mi-|se- ri- cor- di-|a _ _ e-|* * jus, Et|mi- * * se-|* ri- cor- *|* * * * di-|a|
 B2 c2 A4 | B6 AG | A2 B2 G4 | z2 d4 d2 | d2 d2 e2 c2 | d2 e2 c4 | B8 | d4 d2 c2 | B2 A4 f2 | %75
w: e- * *||* * jus,|Et mi-|se- ri- cor- di-|a _ e-|jus,|a pro- ge-|ni- e in|
 e2 d2 c2 e2- | ed B2 c2 d2- | dc c4 B2 | c4 z2 G2 | A3 G F2 E2 | D2 d2 e3 d | c2 A2 B2 e2 | %82
w: pro- ge- ni- *|||es ti-|men- ti- bus e-|um ti- men- ti-|bus e- um ti-|
 e2 c2 d2 f2- | f2 ed e2 d2- | dcBA G2 A2- | AG G4 ^F2 | G8 || x8 | x8 | x8 | x8 | x8 | x8 | x8 || %94
w: men- ti- bus e-||||um||||||||
 x8 | x8 | x8 | d4 e2 c2 | d3 c B2 c2 | A4 B4 | A4 z2 G2- | G2 A2 F2 G2- | G2 E2 FGAB | cd e4 d2- | %104
w: |||De- po- su-|it pot- en- tes|de se-|de, De-|* po- su- it|_ pot- en- * * *|* * * tes|
 d2 cB A2 B2- | B2 G2 A2 d2- | dc c4 B2 | c8 | x8 | z4 z2 A2 | A2 A2 B2 GA | Bc d4 cB | %112
w: _ _ _ _ de|_ se- de, de|_ _ se- *|de,||et|ex- al- ta- vit _|_ _ _ _ _|
 A2 d2 d2 d2 | e2 cd ef g2- | g2 fe f2 d2 | e3 d cBA- x | AG- G4 ^F2 | G8 || x8 | x8 | x8 | x8 | %122
w: * et ex- al-|ta- * * * * *|* * * * vit|hu- * * * *|* * * mi-|les|||||
 x8 | x8 || d4 d2 G2 | c2 d2 e4 | d4 c2 f2- | f2 d2 e2 dc | B6 G2 | A2 G4 ^F2 | G4 z2 d2 | %131
w: ||Su- sce- pit|Is- ra- el|pu- e- rum|_ su- * * *|um pu-|e- rum su-|um Su-|
 d2 G2 c2 d2 | e3 d efe- x | ed d4 (c2 | c2) BA B2 G2 | A2 GF E2 e2 | e2 e2 d2 e2 | f4 e3 d | %138
w: sce- pit Is- ra-|el _ _ _ _|_ _ pu- e-|* * * * rum|su- * * um pu-|e- rum su- *||
 c2 d3 c c2- | c2 B2 c4- | c4 z4 | z4 c4- | c4 B4 | d8 | e8 | z2 G2 A2 A2 | B2 d3 c AB | %147
w: |* * um|_|re-|* cor-|da-|tus|mi- se- ri-|cor- * * * *|
 c2 A2 G2 A2- | AG G4 ^F2 | G8 || x8 | x8 | x8 | x8 | x8 | x8 | x8 || z4 d4- | d4 c4 | B2 BA G4 | %160
w: * di- ae su-||ae,||||||||Glo-|* ri-|* a _ _|
 A2- AB cde- x | ef g2 e2 g2- | g2 fe f2 d2- | dc c4 B2 | c8 | z2 G2 G2 G2 | ABcd e2 f2 | %167
w: Pa- * * * * *|* * * tri et|_ _ _ _ Fi-|* * * li-|o|et Spi- ri-|tu- * * * * *|
 d2 g2- gfe- x | edcB c2- x2 | c2 BA B4 | A4 G2 g2- | gf d2 f4- | f2 ed e2 c2- | c2 BA B4 | %174
w: i San- * * *|||* cto et|_ _ _ Spi-|* * * * ri-|* * * tu-|
 ABcd e2 A2- | AG G4 ^F2 | G8 || x8 | x8 | x8 | x8 | x8 | x8 | x8 | x8 || %185
w: i _ _ _ _ San-||cto|||||||||
V:2
 z8 | z8 ||[M:4/4] C4 G2 G2 | A3 G F2 E2 | FGAF G2 E2 | ^F2 G2- GF F2 | G3 F E2 D2 | E2 C4 B,2 | %8
w: ||A- ni- ma|me- * * a|Do- * * * * *|||* * mi-|
 C8 | z4 z2 G2- | G2 G2 G4 | ^F4 G4 | E2 E2 D4- | D8 || z8 | z8 | z8 | z8 | z8 | z8 || z2 G4 F2- | %21
w: num,|A-|* ni- ma|me- a|Do- mi- num,|_|||||||Qui- a|
 F2 ED E2 D2- | D2 G4 ^F2 | G4 F2 E2 | C2 D4 E2 | CDE^F G4 | z2 G2 G2 G2 | C2 G4 ^F2 | G6 FE | %29
w: _ _ _ _ re-|* spe- *|||* * * * xit|hu- mi- li-|ta- * *|tem _ _|
 D4 z2 G2 | G2 G2 C2 G2- | GF D2 E3 F | G4 A4 | z2 G2- GG G2 | F2 E2 G4- | G2 A2 G4 | F2 D2 E4 | %37
w: _ an-|cil- lae su- *||* ae,|ec- * ce e-|nim ex hoc|_ be- a-|tam me di-|
 C4 D2 B,2 | D4 C4 | G3 G G2 G2 | ^F2 G2 E4- | E4 D4 | z4 z2 G2- | G2 F2 G3 F | E2 A2- AG (G2 | %45
w: |* cent|o- mnes ge- ne|ra- ti- o-|* nes|o-|* mnes ge- ne|ra- ti- * * o-|
 G2) ^F2 G2 G,2- | G,A,B,C D2 G,A, | B,CDE F2 D2- | D^C C2 D4- | D8 || z8 | z8 | z8 | z8 | z8 | %55
w: * * nes o-|* * * * mnes ge- *|* * * * ne ra-|* ti- o- nes|_||||||
 z8 || G6 G2 | G2 G2 A2 F2 | G6 FE | F2 G2 C2 E2 | D2 G2- GF E2 | D4 C4 | z2 G4 G2 | G2 G2 A2 F2 | %64
w: |Et mi-|se- ri- cor- di-|a _ _|_ e- * *||* jus,|Et mi-|se- ri- cor- di-|
 G6 FE | F2 DE FG A2- | AG G4 ^F2 | G2 D4 D2 | D2 D2 E2 C2 | D4 G,2 G2- | G2 ^F2 G2 A2- | %71
w: a _ _|_ e- * * * *||jus, Et mi-|se- ri- cor- di-|a e- *||
 AG G4 ^F2 | G4 z2 G2- | G2 G2 F2 E2 | D4 F4 | G4 A2 GF | G4 F4 | E2 DC D4 | C8- | C8 | G,4 z2 G2 | %81
w: |jus, a|_ pro- ge- ni-|e in|pro- ge- ni- *|* in|pro- * * ge-|ni-||es ti-|
 G2 ^F2 G4 | E4 D4 | z2 G2 G2 ^F2 | G4 E4 | D2 E2 C4 | D8 || z8 | z8 | z8 | z8 | z8 | z8 | z8 || %94
w: men- ti- bus|e- um|ti- men- ti-|bus e-||um||||||||
 z8 | z8 | z2 G4 A2 | F2 G4 E2 | F2 A2- AG G2- | G2 ^F2 G4 | E2 F2 D4 | E2 C2 D4 | z2 G2 A2 F2 | %103
w: ||De- po-|su- it pot-|en- * * * *|* * tes|de se- *|* * de,|De- po- su-|
 G4 F2 G2- | G2 E2 F2 D2- | D2 E2 C2 F2- | F2 E2 D4 | C4 z2 G2 | G2 G2 FE A2- | AG G4 ^FE | %110
w: it pot- en-|* tes de se-|* de, de se-||de, et|ex- al- ta- * *||
 ^FG F2 G4- | G4 z4 | z2 A2 A2 A2 | c4 G4 | A6 F2 | G2 E4 F2 | D2 E2 D4- | D8 || z8 | z8 | z8 | %121
w: * * * vit|_|et ex- al-|ta- vit|hu- mi-|les hu- mi-|* * les|_||||
 z8 | z8 | z8 || z8 | z2 G2 G2 C2 | F2 G2 A3 G | F2 G4 ^F2 | G2- GF D2 E2 | D4 C4 | z2 D2 D2 G,2 | %131
w: ||||Su- sce- pit|Is- ra- el _|_ pu- e-|rum _ _ _ su-|* um|Su- sce- pit|
 D2 E2 F4 | E6 G2 | F2 D2 E4 | D2 G2- GF E2 | D4 z2 G2 | G2 C2 F2 G2 | A6 G2 | G2 D2 F4 | G8- | %140
w: Is- ra- el|pu- e-|rum su- *||um Su-|sce- pit Is- ra-|el pu-|e- rum su-|um|
 G4 z2 G2- | G2 ^F4 E2 | G8 | A2 A2 A2 A2 | c3 B G2 A2- | AG G4 ^F2 | G4 F4 | E2 F2 G2 FE | %148
w: _ re-|* cor- *|da-|tus mi- se- ri-|cor- di- ae su-||ae, mi-|se- ri- cor- di- *|
 D2 E2 D4- | D8 || z8 | z8 | z8 | z8 | z8 | z8 | z8 || G8 | F4 F4 | E8 | F2 A4 GF | G6 E2 | A8 | %163
w: ae su- ae,|_||||||||Glo-|ri- a|Pa-|tri et _ _|_ Fi-|li-|
 G4 z2 G2- | GG G2 ^F2 G2 | E4 D2 E2 | FG A4 A2 | G2 D2 E2 CD | EF G4 ^F2 | G2- GF D2 E2 | %170
w: o et|_ Spi- ri- tu- i|San- cto et|Spi- * * ri-|tu- i San- * *|||
 F2 ED E4 | z2 G2 A2 F2 | G4 C2 (E2 | E2) DC D3 E | FGAF G2 F2 | D2 E2 D4- | D8 || z8 | z8 | z8 | %180
w: * * * cto|et Spi- ri-|tu- i San-|||* * cto|_||||
 z8 | z8 | z8 | z8 | z8 || %185
w: |||||
V:3
 !stemless!G2 (!stemless!A2 !stemless!G2) (!stemless!G2 | !stemless!c2) !stemless!c3 x3 || %2
w: Mag- ni- * fi-|* cat|
[M:4/4] z8 | z8 | z4 z2 x2 | z2 G2 d2 d2 | e3 d c2 B2 | cdec d2 e2- | edcB AG c2- | c2 B2 c4 | %10
w: |||A- ni- ma|me- * * a|Do- * * * * *||* mi- num,|
 B2 e3 d d2- | d2 c2 d4 | c3 B A4 | G8 || z2 !stemless!G2 (!stemless!A2 !stemless!G2) | %15
w: Do- * * *|* mi- num,|Do- * mi-|num,|Et ex- *|
 (!stemless!G2 !stemless!c2) !stemless!c2 !stemless!c2 | %16
w: sul- * ta- vit|
 !stemless!c2 !stemless!c2 !stemless!c2 !stemless!d2 | !stemless!c4 !stemless!c2 !stemless!c2 | %18
w: spi- ri- tus me-|us, in De-|
 !stemless!c2 !stemless!c2 !stemless!c2 !stemless!B2 | !stemless!c2 !stemless!A2 !stemless!G3 x || %20
w: o sa- lu- ta-|ri me- o|
 z4 z2 d2- | d2 c4 BA | B2 c2 A4 | G4 z4 | g8 | f2 e4 dc | B4 c4 | z4 z2 d2 | d2 d2 G2 c2- | %29
w: Qui-|* a _ _|_ re- spe-|xit|hu-|mi- li- * *|ta- tem|an-|cil- lae su- *|
 c2 BA B4 | c4 z2 z2 | z2 g2 g2 g2 | c2 d2 e2 f2 | d4 c4 | z8 | z8 | z2 g2- gg g2 | f2 e2 g4 | %38
w: |ae,|an- cil- lae|su- * * *|* ae,|||ec- * ce e-|nim ex hoc|
 f4 e3 d | c2 B2 c2 e2 | d4 c4 | z4 z2 g2- | g2 f2 g3 f | e2 d2 c2 e2- | e2 c2 d2 e2 | c4 d4 | %46
w: be- a- *|* tam me _|di- cent|o-|* mnes ge- ne|ra- ti- o- *||* nes|
 G3 A Bc d2- | d2 B2 c2 BA | G4 A4 | G8 || !stemless!G2 (!stemless!A2 !stemless!G2) (!stemless!G2 | %51
w: ge- * * * *|* ne ra- ti- *|o- *|nes|Qui- a _ fe-|
 !stemless!c2) !stemless!c2 !stemless!c2 !stemless!c2 | %52
w: * cit mi- hi|
 !stemless!c2 !stemless!c2 !stemless!c2 !stemless!d2 | !stemless!c2 !stemless!c4 !stemless!c2 | %54
w: mag- na qui po-|tens est, et|
 !stemless!c2 !stemless!c2 !stemless!B2 !stemless!c2 | !stemless!A2 !stemless!G3 x3 || z8 | z8 | %58
w: sanc- tum no- men|e- ius|||
 z8 | z8 | z8 | z8 | z8 | z8 | z8 | z8 | z8 | z8 | z8 | z8 | z8 | z8 | z8 | z8 | z8 | z8 | z8 | %77
w: |||||||||||||||||||
 z8 | z8 | z8 | z8 | z8 | z8 | z8 | z8 | z8 | z8 || %87
w: ||||||||||
 !stemless!G2 (!stemless!A2 !stemless!G2) (!stemless!G2 | %88
w: Fe- cit _ po-|
 !stemless!c2) !stemless!c2 !stemless!c2 !stemless!c2 | %89
w: * tem- ti- am|
 !stemless!c2 !stemless!c2 !stemless!c2 !stemless!c2 | !stemless!d2 !stemless!c4 !stemless!c2 | %91
w: in bra- chi- o|su- o Dis-|
 !stemless!c2 !stemless!c2 !stemless!c2 !stemless!c2 | %92
w: per- sit su- per-|
 !stemless!c2 !stemless!c2 !stemless!c2 !stemless!B2 | !stemless!c2 !stemless!A2 !stemless!G3 x || %94
w: bos men- te cor-|dis su- i|
 d4 e2 c2 | d4 B3 c | dc e2- ed c2- | c2 B2 c4 | z2 d4 e2 | c2 d4 B2 | c2 A2 B4 | G2 c4 B2 | %102
w: De- po- su-|it pot- *|* * en- * * *|* * tes|De- po-|su- it pot-|en- tes de|se- * *|
 c4 z2 d2 | e2 c2 d4 | B2 c4 BA | G2 g2 f2 a2- | a2 g2 a2 gf | e8 | z2 c2 c2 c2 | B2 c2 A4- | %110
w: de, De-|po- su- it|pot- en- * *|tes de se- *||de,|et ex- al-|ta- vit hu-|
 A2 A2 G4 | z2 g2 g2 g2 | ^f8 | g4 e2 e2 | d4 z4 | z2 c2 c2 c2 | B2 c2 A3 A | G8 || %118
w: * mi- les|et ex- al-|ta-|vit hu- mi-|les|et ex- al-|ta- vit hu- mi-|les|
 !stemless!G2 (!stemless!A2 !stemless!G2) (!stemless!G2 | %119
w: E- su- * ri-|
 !stemless!c2) !stemless!c2 !stemless!c2 !stemless!c2 | %120
w: * en- tes im-|
 !stemless!c2 !stemless!c2 !stemless!d2 !stemless!c2- | %121
w: ple- vit bo- nis|
 !stemless!c2 !stemless!c2 !stemless!c2 !stemless!c2 | %122
w: _ et di- vi-|
 !stemless!c2 !stemless!c2 !stemless!c2 !stemless!B2 | !stemless!c2 !stemless!A2 !stemless!G3 x || %124
w: tes di- mi- sit|i- na- nes|
 z8 | z8 | z4 z2 d2 | d2 G2 c2 d2 | e2 dc B2 c2- | c2 B2 c2 A2 | G8 | z8 | z2 g2 g2 c2 | %133
w: ||Su-|sce- pit Is- ra-|el _ _ _ pu-|* e- rum su-|um||Su- sce- pit|
 f2 g2 a3 g | fe d4 c2- | c2 B2 c4 | z4 z2 c2 | c2 A2 c3 d | e2 f2- fe c2 | d4 c4 | e8 | d4 c4 | %142
w: Is- ra- el pu-|e- * rum su-|* * um|pu-|e- rum su- *||* um|re-|cor- da-|
 d8 | f4 f2 f2 | g3 f e2 c2 | d2 e2 c4 | d4 z2 c2 | c2 c2 c4 | B2 c2 A4 | G8 || %150
w: tus|mi- se- ri-|cor- * * di-|ae _ su-|ae, mi-|se- ri- cor-|di- ae su-|ae,|
 !stemless!G2 (!stemless!A2 !stemless!G2) (!stemless!G2 | %151
w: Si- cut _ lo-|
 !stemless!c2) !stemless!c2 !stemless!c2 !stemless!c2 | %152
w: * cu- tus est|
 !stemless!c2 !stemless!c2 !stemless!c2 !stemless!d2 | !stemless!c4 !stemless!c2 !stemless!c2 | %154
w: ad pa- tres nos-|tros A- bra-|
 !stemless!c2 !stemless!c2 !stemless!c2 !stemless!c2 | %155
w: ham et se- mi-|
 !stemless!c2 !stemless!c2 !stemless!B2 !stemless!c2 | !stemless!A2 !stemless!G2 !stemless!G3 x || %157
w: ni e- ius in|sae- cu- la|
 G8 | A8 | G4 c4- | c4 c4 | c8 | d3 c de f2 | e2 dc d2 d2 | c4 z4 | z4 z2 c2- | c2 c2 c4 | B4 c4- | %168
w: Glo-|ri-|a Pa-|* tri|et|Fi- * * * *|* * * * li-|o|et|_ Spi- ri-|tu- i|
 c4 A4 | G4 z4 | c4 c2 c2 | B4 c4- | c4 A4 | G4 z4 | z2 c2- cc c2 | B2 c2 A4 | G8 || %177
w: _ San-|cto|et Spi- ri-|tu- i|_ San-|cto|et _ Spi- ri-|tu- i San-|cto|
 !stemless!G2 (!stemless!A2 !stemless!G2) (!stemless!G2 | %178
w: Si- cut _ e-|
 !stemless!c2) !stemless!c2 !stemless!c2 !stemless!c2 | !stemless!c2 !stemless!c2 !stemless!c4 | %180
w: * rat in prin-|ci- pi- o,|
 !stemless!c2 !stemless!c2 !stemless!c2 !stemless!d2 | !stemless!c4 !stemless!c2 !stemless!c2 | %182
w: et nunc et sem-|per et in|
 !stemless!c2 !stemless!c2 !stemless!c2 !stemless!c2 | %183
w: sae- cu- la sae-|
 !stemless!c2 !stemless!B2 !stemless!c2 !stemless!A2 | !stemless!G3 x5 || %185
w: cu- lo- rum a-|men|
V:4
 z8 | z8 ||[M:4/4] z8 | z8 | z8 | z8 | z8 | z2 C,2 G,2 G,2 | A,3 G, F,2 E,2 | F,2 G,2 C,4 | %10
w: |||||||A- ni- ma|me- * * a|Do- mi- num,|
 z2 C,2 G,2 G,2 | A,4 G,4 | C,4 D,4 | G,8 || z8 | z8 | z8 | z8 | z8 | z8 || z8 | z8 | z8 | %23
w: A- ni- ma|me- a|Do- mi-|num,||||||||||
 z2 D4 C2- | C2 B,A, B,2 C2 | A,4 G,2 G,2 | G,2 G,2 C,2 C2- | C2 B,2 A,2 D,2 | G,4 E,2 F,2 | G,8 | %30
w: Qui- a|_ _ _ _ re-|spe- xit hu-|mi- li- ta- *|||tem|
 z4 z2 G,2 | G,2 G,2 C,2 C2- | C2 B,2 A,2 F,2 | G,4 C,4 | z2 C2- CC C2 | B,2 A,2 C3 C | %36
w: an-|cil- lae su- *||* ae,|ec- * ce e-|nim ex hoc be-|
 D2 G,2 C3 B, | A,4 G,3 F, | D,E,F,G, A,B,C- x | CC, G,2 C,4 | z2 G,2 A,2 C2- | CB,A,G, F,2 G,2 | %42
w: a- tam me _|_ di- *||* * * cent|be- a- tam|_ _ _ _ _ me|
 A,4 G,4 | z4 C3 C | C2 C2 B,2 C2 | A,4 G,4 | z4 G,3 G, | G,2 G,2 F,2 G,2 | E,4 D,4 | G,8 || z8 | %51
w: di- cent|o- mnes|ge- ne ra- ti-|o- nes|o- mnes|ge- ne ra- ti-|o- *|nes||
 z8 | z8 | z8 | z8 | z8 || z8 | z8 | z8 | z8 | G,6 G,2 | G,2 G,2 A,2 F,2 | G,3 A, B,2 C2- | %63
w: |||||||||Et mi-|se- ri- cor- di-|a _ _ e-|
 C2 B,2 A,2 D2 | C4 z2 D2- | D2 D2 D2 D2 | E2 C2 D4 | G,6 F,E, | F,2 G,2 C,2 C2- | %69
w: |jus, Et|_ mi- se- ri-|cor- di- a|e- * *|* * jus, Et|
 C2 B,A, B,2 G,2 | D4 C2 A,2 | B,2 C2 A,4 | G,8 | z4 x4 | z2 D4 D2 | C2 B,2 A,2 C2- | %76
w: _ _ _ _ mi-|se- ri- cor-|di- a e-|jus,||a pro-|ge- ni- e in|
 CB, G,2 A,2 D,2 | G,4 z2 G,2 | A,3 G, F,2 E,2 | F,3 G, A,B, C2- | C2 B,2 C3 B, | C2 D2 G,2 C2 | %82
w: _ _ pro- ge- ni-|es ti-|men- ti- bus e-|um _ _ _ _|_ ti- men- ti-|bus e- um ti-|
 C2 A,2 B,2 D2- | D2 CB, C2 D2 | G,4 C2 A,2 | B,2 C2 A,4 | G,8 || z8 | z8 | z8 | z8 | z8 | z8 | %93
w: men- ti- bus e-||um ti- men-|ti- bus e-|um|||||||
 z8 || z2 G,4 A,2 | F,2 G,4 E,2 | F,2 C,2 E,2 F,2 | D,2 G,2 C,4 | z8 | z4 G,4 | A,2 F,2 G,4 | %101
w: |De- po-|su- it pot-|en- tes de se-|* * de,||De-|po- su- it|
 E,2 F,2 D,2 G,2 | C,2 E,2 D,4 | C,4 z2 G,2- | G,2 A,2 F,2 G,2- | G,2 E,2 F,2 D,2- | %106
w: pot- en- tes de|se- * *|de, De-|* po- su- it|_ pot- en- tes|
 D,2 E,2 F,2 G,2 | C,2 C2 C2 C2 | C3 B, A,2 F,2 | G,2 C,2 D,4- | D,4 z2 G,2 | G,2 G,2 B,2 C2 | %112
w: _ de se- *|de, et ex- al-|ta- * * vit|hu- mi- les|_ et|ex- al- ta- vit|
 D4 D4 | C8 | z2 D2 D2 D2 | C3 B, A,2 F,2 | G,2 C,2 D,4 | G,8 || z8 | z8 | z8 | z8 | z8 | z8 || %124
w: hu- mi-|les|et ex- al-|ta- * * vit|hu- * mi-|les|||||||
 z8 | z8 | z8 | z8 | z2 G,2 G,2 C,2 | F,2 G,2 A,2 C2- | C2 B,A, B,C D2 | B,2 C2 A,2 B,2 | C8 | %133
w: ||||Su- sce- pit|Is- ra- el pu-||e- rum su- *||
 D2 B,2 A,4 | z2 G,2 G,2 C,2 | F,2 G,2 A,2 C2 | C2 A,2 D2 C2 | F,3 G, A,B, C2- | C2 _B,2 A,4 | %139
w: * * um|Su- sce- pit|Is- ra- el pu-|e- rum su- *|||
 G,4 C,4 | C8 | B,4 A,4 | G,8 | D,2 D2 D2 D2 | C6 A,2 | B,2 C2 A,4 | G,3 F, D,E,F,G, | %147
w: * um|re-|cor- *|da-|tus mi- se- ri-|cor- di-|ae su- ae,|_ _ _ _ _ _|
 A,2 F,2 E,2 F,2 | G,2 C,2 D,4 | G,8 || z8 | z8 | z8 | z8 | z8 | z8 | z8 || G,8 | D,4 F,4 | C,8 | %160
w: * su- * *||ae,||||||||Glo-|ri- a|Pa-|
 F,6 E,D, | E,8 | D,8 | G,8 | C,4 z2 C2- | CC C2 B,2 C2 | A,6 F,2 | G,4 C,4- | C,4 z4 | %169
w: tri _ _|et|Fi-|li-|o et|_ Spi- ri- tu- i|San- *|* cto|_|
 z2 G,2- G,G, G,2 | F,G,A,B, C2 C,2 | G,4 F,3 E, | C,4 z4 | z2 G,3 G, G,2 | F,4 E,2 F,2 | %175
w: et _ Spi- ri-|tu- * * * * i|San- * *|cto|et Spi- ri-|tu- i San-|
 G,2 C,2 D,4 | G,8 || z8 | z8 | z8 | z8 | z8 | z8 | z8 | z8 || %185
w: |cto|||||||||

